X:12255
T:Off to California
R:hornpipe
Z:id:hn-hornpipe-7
M:C|
K:G
(3DEF|GFGB AG (3DEF|GBdg e2 (3def|gfgd edBG|ABAG E2|
(3DEF|GFGB AG (3DEF|GBdg e2 (3def|gfgd edBG|(3ABA GF G2:|
|:zg|gfeg fedf|edef edBd|gfgd edBG|ABAG E2|
(3DEF|GFGB AG (3DEF|GBdg e2 (3def|gfgd edBG|(3ABA GF G2:|
